dist/svg/storage-duo-tone.svg

<svg xmlns="http://www.w3.org/2000/svg" viewBox="0 0 24 24"><path d="M3.701 3.285q-.496.071-.925.495c-.479.473-.535.703-.535 2.22 0 1.475.05 1.704.473 2.165.108.118.27.26.36.315l.162.1.012 4.96.012 4.96.109.32c.151.445.362.783.695 1.116s.671.544 1.116.695l.32.109h13l.32-.109a2.74 2.74 0 0 0 1.116-.695c.333-.333.544-.671.695-1.116l.109-.32.012-4.96.012-4.96.162-.1c.09-.055.252-.197.36-.315.423-.461.473-.69.473-2.165 0-1.517-.056-1.747-.535-2.22-.296-.292-.592-.445-.964-.498-.35-.05-16.214-.048-16.559.003m16.466 1.541c.067.061.073.152.073 1.167 0 .968-.008 1.11-.066 1.174-.064.07-.37.073-8.167.073-7.482 0-8.106-.005-8.174-.066s-.073-.152-.073-1.167c0-.968.008-1.11.066-1.174.064-.07.37-.073 8.167-.073 7.482 0 8.106.005 8.174.066m-.936 8.724-.011 4.79-.099.195c-.13.253-.467.559-.707.641-.17.058-.802.064-6.414.064s-6.244-.006-6.414-.064c-.24-.082-.577-.388-.707-.641l-.099-.195-.011-4.79-.01-4.79h14.482zM8.7 10.316a.745.745 0 0 0 .029 1.382c.13.054.543.062 3.28.061 2.958-.001 3.14-.005 3.291-.075a.743.743 0 0 0 0-1.368c-.151-.07-.332-.074-3.3-.074s-3.149.004-3.3.074"/></svg>

<svg fill="none" xmlns="http://www.w3.org/2000/svg" viewBox="0 0 24 24"><path d="M3.701 3.285 C 3.369 3.333,3.063 3.497,2.776 3.780 C 2.297 4.253,2.241 4.483,2.241 6.000 C 2.241 7.475,2.291 7.704,2.714 8.165 C 2.822 8.283,2.984 8.425,3.074 8.480 L 3.236 8.580 3.248 13.540 L 3.260 18.500 3.369 18.820 C 3.520 19.265,3.731 19.603,4.064 19.936 C 4.397 20.269,4.735 20.480,5.180 20.631 L 5.500 20.740 12.000 20.740 L 18.500 20.740 18.820 20.631 C 19.265 20.480,19.603 20.269,19.936 19.936 C 20.269 19.603,20.480 19.265,20.631 18.820 L 20.740 18.500 20.752 13.540 L 20.764 8.580 20.926 8.480 C 21.016 8.425,21.178 8.283,21.286 8.165 C 21.709 7.704,21.759 7.475,21.759 6.000 C 21.759 4.483,21.703 4.253,21.224 3.780 C 20.928 3.488,20.632 3.335,20.260 3.282 C 19.910 3.232,4.046 3.234,3.701 3.285 M20.167 4.826 C 20.234 4.887,20.240 4.978,20.240 5.993 C 20.240 6.961,20.232 7.103,20.174 7.167 C 20.110 7.237,19.804 7.240,12.007 7.240 C 4.525 7.240,3.901 7.235,3.833 7.174 C 3.766 7.113,3.760 7.022,3.760 6.007 C 3.760 5.039,3.768 4.897,3.826 4.833 C 3.890 4.763,4.196 4.760,11.993 4.760 C 19.475 4.760,20.099 4.765,20.167 4.826 M19.231 13.550 L 19.220 18.340 19.121 18.535 C 18.991 18.788,18.654 19.094,18.414 19.176 C 18.244 19.234,17.612 19.240,12.000 19.240 C 6.388 19.240,5.756 19.234,5.586 19.176 C 5.346 19.094,5.009 18.788,4.879 18.535 L 4.780 18.340 4.769 13.550 L 4.759 8.760 12.000 8.760 L 19.241 8.760 19.231 13.550 M8.700 10.316 C 8.084 10.600,8.101 11.436,8.729 11.698 C 8.859 11.752,9.272 11.760,12.009 11.759 C 14.967 11.758,15.149 11.754,15.300 11.684 C 15.904 11.406,15.904 10.594,15.300 10.316 C 15.149 10.246,14.968 10.242,12.000 10.242 C 9.032 10.242,8.851 10.246,8.700 10.316 " stroke="none" fill-rule="evenodd"/></svg>
